X: 1
T: Kerry Polka #4
C: R-108
M: C|
Z: Transcribed to abc by Mary Lou Knack
R: polka
K: G
"G"D3E G2B2| D3E G2B2| "C"A2E2 E2DE| G2E2 "D"EGFE|
"G"D3E G2B2| D3E G2B2| "C"A2E2 "D"F2EF| "G"A2G2 G4 :|
|:\
"G"d2B2 B2AB| d2B2 B3A| "Em"G2E2 E2DE| "C"G2E2 "D"E2D2|
"G"d2B2 B2AB| d2B2 B3A| "C"G2E2 "D"F2EF| "G"A2G2 G4 :|
%%text 9/1/98
